X: 1
T: Auld Toon o' Ayr
R: strathspey
Z: 1997 by John Chambers <jc:trillian.mit.edu>
B: Kerr (Merry Melodies), v.2 p.19 #161, 1870s
M: C
L: 1/8
K: D
A \
| "D"D<D F>A d3 c | "G"B/A/B/c/ d>B "D"A<F F>{c}d \
| "D"D<D F>A "Bm"d3 f | "Em"(3efg (3gfe "G"d<B B>{c}d ||
y2 \
| "D"D<D F>A d3 c | "G"B/A/B/c/ d>B "D"A<F F>A \
| "G"B/A/B/c/ d>B "D"A<F F>{c}d | "Bm"A<F F>D "A7"E3 |]
F \
| "D"D>d F>d A<F F>A | "G"B/A/B/c/ d>B "D"A<F F>{c}d \
| "D"D>d F>d "(Bm)"A<F F>A | "G"{c}d>B "D"A<F "A7"E3 ||
F \
| "D"D>d F>d A<F F>A | "G"B>A B>c "Bm"d3 f \
| "Em"(3efg (3gfe "G"d<B B>{c}d | "D"A<F F>D "A7"E3 |]
